!!!OTL: Zu Arel op der Knippchen, S. 34f
!!!id: L0027V
**kern
*clefG2
*k[]
*a:
{8e
=1
8.e
16a
8a
8a
=2
8a
8g#
8a}
=3
{8b
=4
8.cc
16b
8b-
8b
=5
4b}
8r
=6
{8b
=7
8.cc
16cc
8b
8a
=8
4dd
8cc}
=9
{8b
=10
8.cc
16cc
8.b
16b
=11
4a}
8r
==
*-
!!!minrhy: 16
!!!meters: 2/4 ]  ZZ[4
!!!cut1: Zu Arel op der Knippchen, S. 34f
!!!cut2: 2. Weise
!!!reg: Luxemburg
!!!trd: Die Luxemburger Volkslieder &auml;lterer Zeit, Luxemburg 1904 posth.
!!!rhy1: X_  X_.XX_X_  X_X_X_
!!!rhy2: X_  X_.XX_X_  X__0_
!!!key: L0027V 16  A 2/4 ]  ZZ[4
!!!mod: HEPTATONIK MOLL ?]  AMBITUS[7b
!!!kad: 123b1
!!!akz: -51_3b2_3b4_3b1_
!!!fot: 'a__b__c__cw_
!!!for: 'a__aw_a__b__
!!!fok: '/__-__/__\__
!! PHRAS[AUFTAKTIG]
!!!fkt: ??/Trinklied
!!!bem1: 2 Weisen
!!!bem2: 1. Weise mit Sign. 0026 vorausgehend
!!!bem3: 2. Weise
!! FONTAINE, Ed.:
!! PR[34] 2K[6] 2G[23] 3K[0] 3G[0] 4A[11] 4Ü[0] 5A[0] 6K[0] 6G[0]
!! 7K[0] 7G[0] 8A[0] MEHR[0] SI[40] ABS[35] SR[29] SP[11]
!! ST[8] 2k[0] 2g[11] 3k[6] 3g[0] 4d[6] 4ü[0] 5d[3] 6k[0] 6g[0]
!! 7k[0] 7g[0] 8d[0] mehr[0] si[26] dm[+14] sr[11] sp[14]
!! 1F[44] 2F[44] 3F[11] 4F[0] LF[0] 2P[0] 3P[0] 4P[0] TRI[0] DF[3] AB[36]
!! TF[0] U3K[0] U3[0] U4[0] U4Ü[0] U5[0] U6K[0] U6[0] U7K[0] U7[0]
!! N1[6] N2K[0] N2[6] N3K[0] N3[6] N4[6] N4Ü[0] N5[28] N6K[0] N6[17]
!!!n7k: 0] N7[0] O1[33] O2K[0] O2[0] O3K[0] O3[0] HÖ[0
!!!RNB: symbol: &auml;      = a umlaut  (UTF-8: Å„)
